X: 29048
T: Neil Gow's Highland
R: reel
M: 4/4
K: Adorian
|:A>BA>F G2 G>B|A2 A>B ^c>d e<c|A2 A>F G2 A>B|(3cBA B>G E<A A2:|
A>B^c>d e>f g2|G2 B>G D>GB>G|A>B^c>d e>fg>f|e<aa>g e<a a2|
g>fe>g f>e d2|g>fg>d B<G G>B|A>B^c>d e>fg>e|d>cB>G E<A G2||

